X:1
T: The Eureka Hornpipe
C:
R:Reel
Q: 232
K:Bb
M:4/4
L:1/8
|:((3fga)|bf df Bd Fd|ec AF EF CE|Df dB Gg ec|BA cA F2 ((3fga)|
bf df Bd ef|ec AF EF CE|Dg fe df Ac|B2 d2 B2:|
|:((3fga)|bg fd BG FD|CE G=B cd ef|ge cA FE CA,|B,D FB dg bg|
gE GB eg bg|fD FB df bF|Gg fe df Ac|B2 d2 B2:|
